public/img/footer__phone.svg

<svg width="22" height="22" viewBox="0 0 22 22" fill="none" xmlns="http://www.w3.org/2000/svg">
<g clip-path="url(#clip0_64_266)">
<path d="M19.5973 13.4225C18.65 13.2967 17.72 13.0639 16.8251 12.7285C15.8442 12.3578 14.728 12.5971 13.9802 13.3407L13.0062 14.3196C10.8272 12.9852 8.99949 11.1484 7.67604 8.96271L8.65112 7.9826C9.38891 7.23255 9.62698 6.10976 9.25848 5.12368C8.92386 4.22172 8.69187 3.28495 8.56689 2.33107C8.37957 0.997707 7.23494 0 5.9044 0L5.878 0.000157058H2.77142C2.69049 0.000157058 2.60909 0.00377132 2.53099 0.0111571C1.81426 0.0762147 1.16541 0.418003 0.704192 0.973664C0.24266 1.52964 0.0243869 2.23317 0.0900731 2.96421C0.438618 6.26376 1.57163 9.47971 3.36323 12.2597C4.99139 14.8353 7.20618 17.0617 9.7637 18.6953C12.5209 20.4925 15.7052 21.6312 18.9836 21.9892C19.0646 21.9964 19.1457 22 19.2247 22H19.2368C20.7228 21.9939 21.9268 20.773 21.921 19.2811V16.1657C21.9508 14.7934 20.9555 13.6151 19.5973 13.4225ZM20.6729 16.1586V19.2838C20.6761 20.0852 20.0296 20.7397 19.2315 20.743C19.1853 20.7427 19.1403 20.7411 19.1069 20.7383C16.0326 20.4025 13.0365 19.3311 10.4372 17.6369C8.02867 16.0985 5.94667 14.0056 4.41326 11.5801C2.72506 8.96051 1.65916 5.93517 1.3323 2.84116C1.31472 2.65131 1.33479 2.45986 1.39137 2.27778C1.44794 2.0957 1.53991 1.92658 1.66198 1.78013C1.79685 1.6165 1.96628 1.48477 2.1581 1.3944C2.34992 1.30403 2.55938 1.25727 2.77142 1.25747H5.88413C5.88916 1.25715 5.89387 1.25715 5.89859 1.25715C6.61611 1.25715 7.23054 1.79207 7.33033 2.50142C7.46798 3.54792 7.72279 4.57565 8.08996 5.56525C8.2878 6.0942 8.15989 6.69575 7.76703 7.09521L6.45189 8.4171C6.35489 8.51487 6.29249 8.64165 6.27416 8.77815C6.25584 8.91464 6.2826 9.05339 6.35038 9.17328C7.87939 11.876 10.1088 14.1172 12.7977 15.6541C12.9163 15.722 13.054 15.7488 13.1894 15.7304C13.3249 15.712 13.4504 15.6495 13.5466 15.5524L14.8592 14.233C15.056 14.0379 15.3047 13.9034 15.5757 13.8455C15.8467 13.7875 16.1286 13.8086 16.3879 13.9061C17.3694 14.2743 18.3895 14.53 19.4287 14.6683C20.1563 14.7714 20.6912 15.4055 20.6729 16.1432V16.1586Z" fill="white"/>
</g>
<defs>
<clipPath id="clip0_64_266">
<rect width="22" height="22" fill="white"/>
</clipPath>
</defs>
</svg>

<svg width="22" height="22" fill="none" xmlns="http://www.w3.org/2000/svg"><g clip-path="url(#clip0_64_266)"><path d="M19.597 13.422a12.64 12.64 0 01-2.772-.694 2.693 2.693 0 00-2.845.613l-.974.979a15.998 15.998 0 01-5.33-5.357l.975-.98a2.73 2.73 0 00.607-2.86 12.815 12.815 0 01-.691-2.792A2.706 2.706 0 005.904 0H2.771A2.673 2.673 0 00.704.974a2.708 2.708 0 00-.614 1.99 21.395 21.395 0 003.273 9.296 21.001 21.001 0 006.4 6.435 21.162 21.162 0 009.22 3.294c.082.007.163.011.242.011h.012a2.706 2.706 0 002.684-2.719v-3.115a2.707 2.707 0 00-2.324-2.744zm1.076 2.737v3.125a1.452 1.452 0 01-1.566 1.454 19.909 19.909 0 01-8.67-3.101 19.755 19.755 0 01-6.024-6.057 20.123 20.123 0 01-3.08-8.739A1.448 1.448 0 012.77 1.257H5.9a1.45 1.45 0 011.431 1.244 14.09 14.09 0 00.76 3.064c.198.53.07 1.13-.323 1.53L6.452 8.417a.632.632 0 00-.102.756 17.247 17.247 0 006.448 6.481.62.62 0 00.749-.102l1.312-1.319a1.447 1.447 0 011.529-.327c.981.368 2.002.624 3.04.762a1.45 1.45 0 011.245 1.475v.016z" fill="#fff"/></g><defs><clipPath id="clip0_64_266"><path fill="#fff" d="M0 0h22v22H0z"/></clipPath></defs></svg>
